X: 1167
T: Jump At The Sun
B: ralph
B: to learn
M:6/8
R: jig
Q: 3/8=100
K:Edorian
V:1 
"Em"EGB ^A2B|EGB ^A2B|eBB eBB|BAG"B"F3|"Em"EGB ^A2B|
EGB ^A2B|eBB "Am"=cBA|"B7"GAF "Em"E2 B:|
"Em"eBB gfe|"B7"fBB agf|"Em"gfe gfe|"B"fBB "B7"c2B|
"Em"eBB gfe|"B7"fBB agf|"Em"ezB "Am"=cBA|"B7"GAF "Em"E2:|
% abcbook-tune_id 63443e19c1a786ecc15de560
% abcbook-link-0 https://www.youtube.com/watch?v=OC8-t5QVgZM
% abcbook-link-title-0 JUMP AT THE SUN by John Kirkpatrick - Copyright  Squeezer Music

% abcbook-boost 0
% abcbook-tablature 
% abcbook-transpose 
% abcbook-lastupdated 1666788969657
% abcbook-soundfonts 
% abcbook-repeats 3


